!!!id: 18xx:1609
!!!COM: Richling
!!!OTL: Msza na 3 głosy – Sanctus
!!!PDT:
!!!SMS-siglum: PL-Kk
!!!SMS-shelfmark: Kk.I.382
!!!NIFC-rismID: 1001142972
!!!URL-scan: http://repozytorium.nifc.pl/skany/pl-kk-nut--i-382
!!!ONB-nifc: S/T1 od 0062, A/B1 od 0206, B2 od 0279. Części Mszy: 1. Kyrie, 2. Et in terra, 3. Tollite portas, 4. Patrem, 5. Sanctus, 6. Benedictus, 7. Agnus Dei, 8. Dona
!!!SMS-variant:
!!!SMS-altvar:
**kern	**text	**kern	**text	**kern	**text
*part3	*part3	*part2	*part2	*part1	*part1
*staff3	*staff3	*staff2	*staff2	*staff1	*staff1
*I"Basso II	*	*I"Alto. vel Basso I	*	*I"Soprano vel Tenore I.	*
*I'B2	*	*I'A / B1	*	*I'S / T1	*
*clefF4	*	*clefF4	*	*clefG2	*
*	*	*	*	*Trd0c0	*
*k[f#c#g#d#]	*	*k[f#c#g#d#]	*	*k[f#c#g#d#]	*
*E:	*	*E:	*	*E:	*
*M4/4	*	*M4/4	*	*M4/4	*
*met(c)	*	*met(c)	*	*met(c)	*
=1	=1	=1	=1	=1	=1
!!LO:TX:t=P:problem:all\center or right:global
!LO:TX:a:i:t=Maestoso.	!	!LO:TX:a:i:t=Maestoso	!	!LO:TX:a:i:t=Maestoso	!
4E\	Sanc-	4G#\	Sanc-	(4.b\	Sanc-
4E\	-tus,	4G#\	-tus	.	.
.	.	.	.	8cc#\	.
2r	.	2r	.	8b/L)	.
.	.	.	.	8g#/	.
.	.	.	.	8e/	.
.	.	.	.	8g#/J	-tus,
=2	=2	=2	=2	=2	=2
4D#\	Sanc-	4F#\	Sanc-	(4.b\	Sanc-
4D#\	-tus,	4F#\	-tus	.	.
.	.	.	.	8cc#\	.
2r	.	2r	.	8b/L)	.
.	.	.	.	8a/	.
.	.	.	.	8f#/	.
.	.	.	.	8a/J	-tus,
=3	=3	=3	=3	=3	=3
4E\	Sanc-	4E\	Sanc-	4g#/	Sanc-
4C#\	-tus	4G#\	-tus	4ee\	-tus
4F#\	Do-	4A\	Do-	4dd#\	Do-
8E\	-mi-	8A\	-mi-	8cc#\	-mi-
8E\	-nus	8A\	-nus	8cc#\	-nus
!	!	!LO:LB:g=original	!	!LO:LB:g=original	!
=4	=4	=4	=4	=4	=4
*2\right	*	*2\right	*	*	*
2.D#\	De-	2.F#\	De-	(4.b\	De-
.	.	.	.	8cc#\)	.
.	.	.	.	4b\	-us
4D#\	-us	4F#\	-us,	4r	.
!LO:LB:g=original	!	!	!	!	!
=5	=5	=5	=5	=5	=5
2.E\	De-	2.G#\	De-	4r	.
.	.	.	.	(8b\L	De-
.	.	.	.	8b#X\J	.
.	.	.	.	4cc#\)	.
4E\	-us	4G#\	-us	8b#\L	-us
.	.	.	.	8cc#\J	.
=6	=6	=6	=6	=6	=6
!LO:SIC:v:l:s=sab-	!	!LO:SIC:v:l:s=sab-	!	!LO:SIC:v:l:s=sab-	!
2.D#\	Sa-	2.F##X\	Sa-	4.dd#\	sa-
.	.	.	.	8a#X/	-ba-
.	.	.	.	4a#/	-oth!
4D#\	-ba-	4F##\	-ba-	4r	.
=7	=7	=7	=7	=7	=7
2C#/	-oth.	2G#\	-oth!	4r	.
.	.	.	.	4a#X/	Ple-
4D#/	Ple-	4F##X\	Ple-	4a#/	-ni
8D#/	-ni	8F##\	-ni	(8dd#\L	sunt
8D#/	sunt	8F##\	sunt	8cc#\J)	.
!	!	!	!	!LO:LB:g=original	!
=8	=8	=8	=8	=8	=8
2E\	coe-	(4.G#\	coe-	(4.b\	coe-
.	.	8B\)	.	8g#\)	.
4E\	-li	4G#\	-li,	4b\	-li
4C#\	et	4G#\	et	4ee\	et
!	!	!LO:LB:g=original	!	!	!
=9	=9	=9	=9	=9	=9
4F#\	ter-	4A\	ter-	4dd#\	ter-
4F#\	-ra	4A\	-ra	4cc#\	-ra
4E\	glo-	4G#\	glo-	4cc#\	glo-
8BB#X/	-ri-	8G#\	-ri-	8dd#\	-ri-
8BB#/	-a	8G#\	-a	8dd#\	-a
!LO:LB:g=original	!	!	!	!	!
=10	=10	=10	=10	=10	=10
*	*	*	*	*2\right	*
(2C#/	tu-	(2G#\	Tu-	(2ee\	Tu-
2F#\)	.	2A#X\)	.	2cc#\)	.
=11	=11	=11	=11	=11	=11
4BB/	-a	4B\	-a!	4dd#;\	-a:
4r	.	4r	.	4r	.
!LO:TX:b:i:t=Allegro _	!	!LO:TX:b:t=V&colon;S&colon;	!	!	!
!	!	!LO:TX:b:i:t=Allegro!	!	!	!
2r	.	2r	.	4r	.
!	!	!	!	!LO:TX:a:i:t=Allegro	!
.	.	.	.	4b\	O-
!	!	!LO:PB:g=original	!	!LO:LB:g=original	!
=12||	=12||	=12|	=12|	=12|	=12|
4r	.	4r	.	(4.b\	-san-
4D#\	O-	4F#\	O-	.	.
.	.	.	.	8cc#\)	.
4D#\	-san-	4F#\	-san-	4b\	-na,
4D#\	-na!	4F#\	-na!	4a\	o-
=13	=13	=13	=13	=13	=13
4r	.	4r	.	(4g#\	-san-
4E\	O-	4G#\	o-	4b\	.
4E\	-san-	4G#\	-san-	4ee\)	-na,
4E\	-na!	4G#\	-na!	4dd#\	o-
=14	=14	=14	=14	=14	=14
4r	.	4r	.	4cc#\	-san-
(8A\L	in	(8c#\L	in-	(8ff#\L	-na
8G#\J	.	8B\J	.	8ee\J)	.
4F#\)	.	4A\	.	4dd#\	in
!	!	!LO:TX:t=P:problem:x zaplamione/wytarte	!	!	!
4E\	ex-	4G#\)	-ex-	4cc#\	ex-
!LO:LB:g=original	!	!	!	!	!
=15	=15	=15	=15	=15	=15
(4D#\	-cel-	(4F#\	-cel-	(4.b\	-cel-
4E\	.	4Gn\	.	.	.
.	.	.	.	8a#X\)	.
4D#\)	-sis.	4F#\)	-sis.	4b/	-sis,
4r	.	4r	.	4f#/	o-
!	!	!LO:LB:g=original	!	!LO:LB:g=original	!
=16	=16	=16	=16	=16	=16
4r	.	4r	.	4g#/	-san-
4D#\	O-	4F#\	O-	4b/	-na,
4E\	-san-	4G#\	-san-	4r	.
4BB\	-na!	4B\	-na	4d#/	o-
=17	=17	=17	=17	=17	=17
4r	.	4r	.	(8e/L	-san-
.	.	.	.	8g#/J	.
4BB/	O-	4D#\	o-	2b/)	.
4C#/	-san-	(8E\L	-san-	.	.
.	.	8F#\J)	.	.	.
4C#/	-na	4Gn\	-na	4a#X/	.
=18	=18	=18	=18	=18	=18
!LO:TX:t=P:problem:kasownik ołówkiem	!	!	!	!	!
(4Dny\	in	4F#\	in	4b/	.
4D#X\)	.	4A\	ex-	4b#X/	.
4E\	.	(4G#\	-cel-	2cc#\	-na,
(4E#X\	ex-	4B\)	.	.	.
=19	=19	=19	=19	=19	=19
4F#\)	.	4A\	-sis,	4cc#\	in
4r	.	4r	.	(8a/L	ex-
.	.	.	.	8f#/J)	.
2BB/	-cel-	(4D#\	cel-	(4ff#\	-cel-
.	.	8F#\L	.	4dd#\)	.
.	.	8A\J)	.	.	.
=20	=20	=20	=20	=20	=20
1E	-sis.	1G#	-sis.	1ee	-sis.
!LO:LB:g=original	!	!LO:LB:g=original	!	!LO:LB:g=original	!
==	==	==	==	==	==
*-	*-	*-	*-	*-	*-
!!!system-decoration: [(s1,s2,s3)]
!!!ENC: Andrzej Borzym
!!!END: 2021-03-06
!!!ENC: Marta Chmielewska
!!!END: 2021-03-26
